app/public/dtpr-icons/emergency.svg

<svg width="36" height="36" viewBox="0 0 36 36" fill="none" xmlns="http://www.w3.org/2000/svg">
<path d="M31.8564 8.8453L19 1.42265C18.3812 1.06538 17.6188 1.06538 17 1.42265L4.14359 8.8453C3.52479 9.20257 3.14359 9.86282 3.14359 10.5774V25.4226C3.14359 26.1372 3.52479 26.7974 4.14359 27.1547L17 34.5774C17.6188 34.9346 18.3812 34.9346 19 34.5774L31.8564 27.1547C32.4752 26.7974 32.8564 26.1372 32.8564 25.4226V10.5774C32.8564 9.86282 32.4752 9.20256 31.8564 8.8453Z" fill="black" stroke="black" stroke-width="2"/>
<path fill-rule="evenodd" clip-rule="evenodd" d="M27.0021 20.335L22.9768 18L27.0021 15.665C27.4789 15.389 27.6411 14.777 27.3664 14.299L25.8733 11.701C25.5986 11.223 24.9905 11.059 24.5137 11.335L20.4884 13.67V9C20.4884 8.448 20.0425 8 19.4931 8H16.507C15.9576 8 15.5116 8.448 15.5116 9V13.67L11.4864 11.335C11.0106 11.059 10.4015 11.223 10.1257 11.701L8.6327 14.299C8.35898 14.777 8.52222 15.389 8.998 15.665L13.0232 18L8.998 20.335C8.52222 20.611 8.35898 21.223 8.6327 21.701L10.1257 24.299C10.4015 24.777 11.0106 24.941 11.4864 24.665L15.5116 22.33V27C15.5116 27.552 15.9576 28 16.507 28H19.4931C20.0425 28 20.4884 27.552 20.4884 27V22.33L24.5137 24.665C24.9905 24.941 25.5986 24.777 25.8733 24.299L27.3664 21.701C27.6411 21.223 27.4789 20.611 27.0021 20.335Z" fill="white"/>
</svg>

<svg xmlns="http://www.w3.org/2000/svg" width="36" height="36" fill="none"><path fill="#000" stroke="#000" stroke-width="2" d="M31.856 8.845 19 1.423a2 2 0 0 0-2 0L4.144 8.845a2 2 0 0 0-1 1.732v14.846a2 2 0 0 0 1 1.732L17 34.577a2 2 0 0 0 2 0l12.856-7.422a2 2 0 0 0 1-1.732V10.577a2 2 0 0 0-1-1.732Z"/><path fill="#fff" fill-rule="evenodd" d="M27.002 20.335 22.977 18l4.025-2.335c.477-.276.64-.888.364-1.366l-1.493-2.598a.993.993 0 0 0-1.36-.366l-4.025 2.335V9c0-.552-.445-1-.995-1h-2.986a1 1 0 0 0-.995 1v4.67l-4.026-2.335a.995.995 0 0 0-1.36.366l-1.493 2.598c-.274.478-.11 1.09.365 1.366L13.023 18l-4.025 2.335a1.004 1.004 0 0 0-.365 1.366l1.493 2.598a.995.995 0 0 0 1.36.366l4.026-2.335V27c0 .552.446 1 .995 1h2.986c.55 0 .995-.448.995-1v-4.67l4.026 2.335a.993.993 0 0 0 1.36-.366l1.492-2.598a1 1 0 0 0-.364-1.366" clip-rule="evenodd"/></svg>
